X: 1
T: Eddie The Fiddlemaker
M: 6/8
L: 1/8
R: jig
K: Gdor
G2A B2c|dBG ABA|G2A B2d|cAF CFA|
G2A B2c|dBG FAc|ded cAF|G3 G2A:|
|:g2a b2a|gfd fga|g2a b2g|fdc dfa|
[1 g2a f2g|e2f d2c|ded cAF|G3 G3:|
[2 g2a gbg|afa g2e|f2b efe|dcA GBA|]
